; G-Code generated by Simplify3D(R) Version 3.0.2
; Oct 3, 2015 at 11:02:09 AM
; Settings Summary
;   processName,Process1
;   applyToModels,lampBaseBottom
;   profileName,PrinterBot Simple Metal Custom (modified)
;   profileVersion,2015-05-01 08:00:00
;   baseProfile,Default (modified)
;   printMaterial,PLA
;   printQuality,Medium
;   printExtruders,
;   extruderName,Primary Extruder
;   extruderToolheadNumber,0
;   extruderDiameter,0.4
;   extruderAutoWidth,0
;   extruderWidth,0.4
;   extrusionMultiplier,1
;   extruderUseRetract,1
;   extruderRetractionDistance,1.5
;   extruderExtraRestartDistance,0
;   extruderRetractionZLift,0
;   extruderRetractionSpeed,1800
;   extruderUseCoasting,0
;   extruderCoastingDistance,0.2
;   extruderUseWipe,0
;   extruderWipeDistance,5
;   primaryExtruder,0
;   layerHeight,0.25
;   topSolidLayers,3
;   bottomSolidLayers,3
;   perimeterOutlines,2
;   printPerimetersInsideOut,1
;   startPointOption,2
;   startPointOriginX,0
;   startPointOriginY,0
;   startPointOriginZ,300
;   sequentialIslands,0
;   spiralVaseMode,0
;   firstLayerHeightPercentage,70
;   firstLayerWidthPercentage,120
;   firstLayerUnderspeed,0.5
;   useRaft,0
;   raftExtruder,0
;   raftLayers,3
;   raftOffset,3
;   raftSeparationDistance,0.14
;   raftInfill,85
;   disableRaftBaseLayers,0
;   useSkirt,1
;   skirtExtruder,0
;   skirtLayers,1
;   skirtOutlines,3
;   skirtOffset,4
;   usePrimePillar,0
;   primePillarExtruder,999
;   primePillarWidth,12
;   primePillarLocation,7
;   primePillarSpeedMultiplier,1
;   useOozeShield,0
;   oozeShieldExtruder,999
;   oozeShieldOffset,2
;   oozeShieldOutlines,1
;   oozeShieldSidewallShape,1
;   oozeShieldSidewallAngle,30
;   oozeShieldSpeedMultiplier,1
;   infillExtruder,0
;   internalInfillPattern,Rectilinear
;   externalInfillPattern,Rectilinear
;   infillPercentage,20
;   outlineOverlapPercentage,15
;   infillExtrusionWidthPercentage,100
;   minInfillLength,5
;   infillLayerInterval,1
;   infillAngles,45,-45
;   overlapInfillAngles,0
;   generateSupport,1
;   supportExtruder,0
;   supportInfillPercentage,30
;   supportExtraInflation,0.4
;   denseSupportLayers,0
;   denseSupportInfillPercentage,70
;   supportLayerInterval,1
;   supportHorizontalPartOffset,0.3
;   supportUpperSeparationLayers,1
;   supportLowerSeparationLayers,1
;   supportType,0
;   supportGridSpacing,4
;   maxOverhangAngle,45
;   supportAngles,0
;   temperatureName,Primary Extruder,Heated Bed
;   temperatureNumber,0,1
;   temperatureSetpointCount,2,3
;   temperatureSetpointLayers,1,2,1,2,3
;   temperatureSetpointTemperatures,210,200,70,65,63
;   temperatureStabilizeAtStartup,1,1
;   temperatureHeatedBed,0,1
;   temperatureRelayBetweenLayers,0,0
;   temperatureRelayBetweenLoops,0,0
;   fanLayers,1,2
;   fanSpeeds,0,100
;   blipFanToFullPower,1
;   adjustSpeedForCooling,1
;   minSpeedLayerTime,15
;   minCoolingSpeedSlowdown,20
;   increaseFanForCooling,0
;   minFanLayerTime,45
;   maxCoolingFanSpeed,100
;   increaseFanForBridging,0
;   bridgingFanSpeed,100
;   use5D,1
;   relativeEdistances,0
;   allowEaxisZeroing,1
;   independentExtruderAxes,0
;   includeM10123,0
;   stickySupport,1
;   applyToolheadOffsets,0
;   gcodeXoffset,0
;   gcodeYoffset,0
;   gcodeZoffset,0
;   overrideMachineDefinition,1
;   machineTypeOverride,0
;   strokeXoverride,150
;   strokeYoverride,150
;   strokeZoverride,150
;   originOffsetXoverride,0
;   originOffsetYoverride,0
;   originOffsetZoverride,0
;   homeXdirOverride,-1
;   homeYdirOverride,-1
;   homeZdirOverride,-1
;   flipXoverride,1
;   flipYoverride,-1
;   flipZoverride,1
;   toolheadOffsets,0,0|0,0|0,0|0,0|0,0|0,0
;   overrideFirmwareConfiguration,1
;   firmwareTypeOverride,RepRap (Marlin/Repetier/Sprinter)
;   GPXconfigOverride,r2
;   baudRateOverride,250000
;   overridePrinterModels,1
;   printerModelsOverride
;   startingGcode,G28 X0 Y0 ; home X and Y axes,G29 ; probe z
;   layerChangeGcode,
;   retractionGcode,
;   toolChangeGcode,
;   endingGcode,M104 S0 T0 ; turn off extruder,M140 S0 T1 ; turn off bed,G28 X0 Y0 ; home,M84 ; disable motors
;   createX3G,0
;   celebration,0
;   celebrationSong,Random Song
;   createMB5G,0
;   postProcessing,
;   defaultSpeed,2700
;   outlineUnderspeed,0.8
;   solidInfillUnderspeed,0.8
;   supportUnderspeed,0.8
;   rapidXYspeed,4200
;   rapidZspeed,1002
;   minBridgingArea,50
;   bridgingExtraInflation,0
;   bridgingExtrusionMultiplier,1
;   bridgingSpeedMultiplier,1
;   filamentDiameter,1.75
;   filamentPricePerKg,22
;   filamentDensity,1.25
;   useMinPrintHeight,0
;   minPrintHeight,0
;   useMaxPrintHeight,0
;   maxPrintHeight,0
;   useDiaphragm,0
;   diaphragmLayerInterval,20
;   robustSlicing,1
;   mergeAllIntoSolid,0
;   onlyRetractWhenCrossingOutline,1
;   retractBetweenLayers,1
;   useRetractionMinTravel,0
;   retractionMinTravel,3
;   retractWhileWiping,0
;   onlyWipeOutlines,1
;   avoidCrossingOutline,0
;   maxMovementDetourFactor,3
;   toolChangeRetractionDistance,12
;   toolChangeExtraRestartDistance,-0.5
;   toolChangeRetractionSpeed,600
;   allowThinWallGapFill,1
;   thinWallAllowedOverlapPercentage,10
;   horizontalSizeCompensation,0
G90
M82
M106 S0
M140 S70
M190 S70
M104 S210 T0
M109 S210 T0
G28 X0 Y0 ; home X and Y axes
G29 ; probe z
G92 E0
G1 E-1.5000 F1800
G1 Z0.175 F1002
; layer 1, Z = 0.175
T0
; tool H0.250 W0.480
; skirt
G1 X46.272 Y28.157 F4200
G1 E0.0000 F540
G92 E0
G1 X46.458 Y27.971 E0.0131 F1350
G1 X48.542 Y26.767 E0.1332
G1 X48.797 Y26.699 E0.1464
G1 X101.203 Y26.699 E2.7609
G1 X101.458 Y26.767 E2.7741
G1 X103.542 Y27.971 E2.8942
G1 X103.728 Y28.157 E2.9073
G1 X129.932 Y73.541 E5.5218
G1 X130.000 Y73.795 E5.5350
G1 X130.000 Y76.202 E5.6550
G1 X129.932 Y76.457 E5.6682
G1 X103.728 Y121.843 E8.2828
G1 X103.542 Y122.029 E8.2959
G1 X101.458 Y123.233 E8.4160
G1 X101.203 Y123.301 E8.4292
G1 X48.797 Y123.301 E11.0438
G1 X48.542 Y123.233 E11.0569
G1 X46.458 Y122.029 E11.1770
G1 X46.272 Y121.843 E11.1901
G1 X20.068 Y76.457 E13.8047
G1 X20.000 Y76.202 E13.8179
G1 X20.000 Y73.795 E13.9379
G1 X20.068 Y73.541 E13.9511
G1 X46.272 Y28.157 E16.5656
G1 X46.592 Y28.402 F4200
G92 E0
G1 X46.703 Y28.291 E0.0079 F1350
G1 X48.697 Y27.140 E0.1227
G1 X48.849 Y27.099 E0.1306
G1 X101.151 Y27.099 E2.7399
G1 X101.303 Y27.140 E2.7478
G1 X103.297 Y28.291 E2.8626
G1 X103.408 Y28.402 E2.8705
G1 X129.559 Y73.696 E5.4798
G1 X129.600 Y73.848 E5.4877
G1 X129.600 Y76.150 E5.6025
G1 X129.559 Y76.302 E5.6104
G1 X103.408 Y121.598 E8.2198
G1 X103.297 Y121.709 E8.2276
G1 X101.303 Y122.860 E8.3425
G1 X101.151 Y122.901 E8.3503
G1 X48.849 Y122.901 E10.9597
G1 X48.697 Y122.860 E10.9676
G1 X46.703 Y121.709 E11.0824
G1 X46.592 Y121.598 E11.0903
G1 X20.441 Y76.302 E13.6996
G1 X20.400 Y76.150 E13.7075
G1 X20.400 Y73.848 E13.8223
G1 X20.441 Y73.696 E13.8302
G1 X46.592 Y28.402 E16.4395
G1 X46.912 Y28.648 F4200
G92 E0
G1 X46.949 Y28.611 E0.0026 F1350
G1 X48.851 Y27.513 E0.1122
G1 X48.902 Y27.499 E0.1148
G1 X101.098 Y27.499 E2.7189
G1 X101.149 Y27.513 E2.7215
G1 X103.051 Y28.611 E2.8311
G1 X103.088 Y28.648 E2.8337
G1 X129.186 Y73.850 E5.4378
G1 X129.200 Y73.901 E5.4404
G1 X129.200 Y76.097 E5.5500
G1 X129.186 Y76.148 E5.5526
G1 X103.088 Y121.352 E8.1567
G1 X103.051 Y121.389 E8.1593
G1 X101.149 Y122.487 E8.2689
G1 X101.098 Y122.501 E8.2715
G1 X48.902 Y122.501 E10.8756
G1 X48.851 Y122.487 E10.8782
G1 X46.949 Y121.389 E10.9878
G1 X46.912 Y121.352 E10.9904
G1 X20.814 Y76.148 E13.5945
G1 X20.800 Y76.097 E13.5972
G1 X20.800 Y73.901 E13.7067
G1 X20.814 Y73.850 E13.7094
G1 X46.912 Y28.648 E16.3134
G92 E0
G1 E-1.5000 F1800
; inner perimeter
G1 X50.416 Y32.419 F4200
G1 E0.0000 F1800
G92 E0
G1 X99.584 Y32.419 E2.4530 F1215
G1 X124.169 Y74.999 E4.9060
G1 X99.584 Y117.581 E7.3591
G1 X50.416 Y117.581 E9.8121
G1 X25.831 Y74.999 E12.2652
G1 X50.416 Y32.419 E14.7181
; outer perimeter
G1 X50.139 Y31.939 F4200
G92 E0
G1 X99.861 Y31.939 E2.4807 F1080
G1 X124.723 Y74.999 E4.9613
G1 X99.861 Y118.061 E7.4420
G1 X50.139 Y118.061 E9.9227
G1 X25.277 Y74.999 E12.4034
G1 X50.139 Y31.939 E14.8841
; solid layer
G1 X49.728 Y34.427 F4200
G92 E0
G1 X51.327 Y32.827 E0.1129 F1080
G1 X52.006 Y32.827 E0.1467
G1 X48.800 Y36.033 E0.3729
G1 X47.873 Y37.639 E0.4654
G1 X52.685 Y32.827 E0.8049
G1 X53.364 Y32.827 E0.8388
G1 X46.946 Y39.245 E1.2916
G1 X46.018 Y40.851 E1.3842
G1 X54.043 Y32.827 E1.9503
G1 X54.721 Y32.827 E1.9842
G1 X45.091 Y42.457 E2.6637
G1 X44.164 Y44.064 E2.7562
G1 X55.400 Y32.827 E3.5490
G1 X56.079 Y32.827 E3.5829
G1 X43.236 Y45.670 E4.4890
G1 X42.309 Y47.276 E4.5815
G1 X56.758 Y32.827 E5.6010
G1 X57.437 Y32.827 E5.6349
G1 X41.382 Y48.882 E6.7676
G1 X40.454 Y50.488 E6.8602
G1 X58.115 Y32.827 E8.1063
G1 X58.794 Y32.827 E8.1401
G1 X39.527 Y52.094 E9.4996
G1 X38.599 Y53.701 E9.5921
G1 X59.473 Y32.827 E11.0648
G1 X60.152 Y32.827 E11.0987
G1 X37.672 Y55.307 E12.6848
G1 X36.745 Y56.913 E12.7773
G1 X60.831 Y32.827 E14.4767
G1 X61.510 Y32.827 E14.5106
G1 X35.817 Y58.519 E16.3233
G1 X34.890 Y60.125 E16.4158
G1 X62.188 Y32.827 E18.3419
G1 X62.867 Y32.827 E18.3757
G1 X33.963 Y61.732 E20.4151
G1 X33.035 Y63.338 E20.5077
G1 X63.546 Y32.827 E22.6603
G1 X64.225 Y32.827 E22.6942
G1 X32.108 Y64.944 E24.9602
G1 X31.181 Y66.550 E25.0528
G1 X64.904 Y32.827 E27.4321
G1 X65.583 Y32.827 E27.4660
G1 X30.253 Y68.156 E29.9587
G1 X29.326 Y69.762 E30.0512
G1 X66.261 Y32.827 E32.6572
G1 X66.940 Y32.827 E32.6910
G1 X28.399 Y71.369 E35.4104
G1 X27.471 Y72.975 E35.5029
G1 X67.619 Y32.827 E38.3355
G1 X68.298 Y32.827 E38.3694
G1 X26.544 Y74.581 E41.3154
G1 X26.302 Y74.999 E41.3395
G1 X26.486 Y75.317 E41.3578
G1 X68.977 Y32.827 E44.3557
G1 X69.655 Y32.827 E44.3896
G1 X26.735 Y75.748 E47.4179
G1 X26.983 Y76.178 E47.4427
G1 X70.334 Y32.827 E50.5013
G1 X71.013 Y32.827 E50.5352
G1 X27.232 Y76.608 E53.6242
G1 X27.480 Y77.039 E53.6490
G1 X71.692 Y32.827 E56.7684
G1 X72.371 Y32.827 E56.8022
G1 X27.729 Y77.469 E59.9520
G1 X27.977 Y77.899 E59.9768
G1 X73.050 Y32.827 E63.1569
G1 X73.728 Y32.827 E63.1907
G1 X28.226 Y78.330 E66.4012
G1 X28.474 Y78.760 E66.4260
G1 X74.407 Y32.827 E69.6668
G1 X75.086 Y32.827 E69.7007
G1 X28.722 Y79.191 E72.9719
G1 X28.971 Y79.621 E72.9967
G1 X75.765 Y32.827 E76.2983
G1 X76.444 Y32.827 E76.3321
G1 X29.219 Y80.051 E79.6641
G1 X29.468 Y80.482 E79.6889
G1 X77.123 Y32.827 E83.0512
G1 X77.801 Y32.827 E83.0850
G1 X29.716 Y80.912 E86.4777
G1 X29.965 Y81.342 E86.5025
G1 X78.480 Y32.827 E89.9255
G1 X79.159 Y32.827 E89.9594
G1 X30.213 Y81.773 E93.4127
G1 X30.462 Y82.203 E93.4375
G1 X79.838 Y32.827 E96.9213
G1 X80.517 Y32.827 E96.9552
G1 X30.710 Y82.633 E100.4693
G1 X30.959 Y83.064 E100.4941
G1 X81.195 Y32.827 E104.0385
G1 X81.874 Y32.827 E104.0724
G1 X31.207 Y83.494 E107.6472
G1 X31.456 Y83.925 E107.6720
G1 X82.553 Y32.827 E111.2772
G1 X83.232 Y32.827 E111.3111
G1 X31.704 Y84.355 E114.9467
G1 X31.952 Y84.785 E114.9715
G1 X83.911 Y32.827 E118.6374
G1 X84.590 Y32.827 E118.6713
G1 X32.201 Y85.216 E122.3676
G1 X32.449 Y85.646 E122.3924
G1 X85.268 Y32.827 E126.1190
G1 X85.947 Y32.827 E126.1529
G1 X32.698 Y86.076 E129.9099
G1 X32.946 Y86.507 E129.9347
G1 X86.626 Y32.827 E133.7221
G1 X87.305 Y32.827 E133.7560
G1 X33.195 Y86.937 E137.5737
G1 X33.443 Y87.367 E137.5985
G1 X87.984 Y32.827 E141.4466
G1 X88.662 Y32.827 E141.4805
G1 X33.692 Y87.798 E145.3590
G1 X33.940 Y88.228 E145.3838
G1 X89.341 Y32.827 E149.2926
G1 X90.020 Y32.827 E149.3265
G1 X34.189 Y88.658 E153.2657
G1 X34.437 Y89.089 E153.2905
G1 X90.699 Y32.827 E157.2601
G1 X91.378 Y32.827 E157.2939
G1 X34.686 Y89.519 E161.2939
G1 X34.934 Y89.950 E161.3187
G1 X92.057 Y32.827 E165.3490
G1 X92.735 Y32.827 E165.3828
G1 X35.183 Y90.380 E169.4435
G1 X35.431 Y90.810 E169.4683
G1 X93.414 Y32.827 E173.5593
G1 X94.093 Y32.827 E173.5932
G1 X35.679 Y91.241 E177.7146
G1 X35.928 Y91.671 E177.7394
G1 X94.772 Y32.827 E181.8912
G1 X95.451 Y32.827 E181.9250
G1 X36.176 Y92.101 E186.1071
G1 X36.425 Y92.532 E186.1319
G1 X96.130 Y32.827 E190.3444
G1 X96.808 Y32.827 E190.3783
G1 X36.673 Y92.962 E194.6211
G1 X36.922 Y93.392 E194.6459
G1 X97.487 Y32.827 E198.9192
G1 X98.166 Y32.827 E198.9530
G1 X37.170 Y93.823 E203.2566
G1 X37.419 Y94.253 E203.2814
G1 X98.845 Y32.827 E207.6153
G1 X99.349 Y32.827 E207.6405
G1 X99.413 Y32.938 E207.6469
G1 X37.667 Y94.683 E212.0034
G1 X37.916 Y95.114 E212.0282
G1 X99.661 Y33.368 E216.3846
G1 X99.910 Y33.799 E216.4094
G1 X38.164 Y95.544 E220.7659
G1 X38.413 Y95.975 E220.7907
G1 X100.158 Y34.229 E225.1472
G1 X100.407 Y34.659 E225.1720
G1 X38.661 Y96.405 E229.5285
G1 X38.909 Y96.835 E229.5533
G1 X100.655 Y35.090 E233.9098
G1 X100.904 Y35.520 E233.9346
G1 X39.158 Y97.266 E238.2910
G1 X39.406 Y97.696 E238.3158
G1 X101.152 Y35.950 E242.6723
G1 X101.401 Y36.381 E242.6971
G1 X39.655 Y98.126 E247.0536
G1 X39.903 Y98.557 E247.0784
G1 X101.649 Y36.811 E251.4349
G1 X101.897 Y37.241 E251.4597
G1 X40.152 Y98.987 E255.8162
G1 X40.400 Y99.417 E255.8410
G1 X102.146 Y37.672 E260.1975
G1 X102.394 Y38.102 E260.2223
G1 X40.649 Y99.848 E264.5788
G1 X40.897 Y100.278 E264.6035
G1 X102.643 Y38.532 E268.9600
G1 X102.891 Y38.963 E268.9848
G1 X41.146 Y100.709 E273.3413
G1 X41.394 Y101.139 E273.3661
G1 X103.140 Y39.393 E277.7226
G1 X103.388 Y39.823 E277.7474
G1 X41.643 Y101.569 E282.1039
G1 X41.891 Y102.000 E282.1287
G1 X103.637 Y40.254 E286.4852
G1 X103.885 Y40.684 E286.5100
G1 X42.140 Y102.430 E290.8665
G1 X42.388 Y102.860 E290.8913
G1 X104.134 Y41.115 E295.2478
G1 X104.382 Y41.545 E295.2726
G1 X42.636 Y103.291 E299.6291
G1 X42.885 Y103.721 E299.6539
G1 X104.631 Y41.975 E304.0103
G1 X104.879 Y42.406 E304.0351
G1 X43.133 Y104.151 E308.3916
G1 X43.382 Y104.582 E308.4164
G1 X105.128 Y42.836 E312.7729
G1 X105.376 Y43.266 E312.7977
G1 X43.630 Y105.012 E317.1542
G1 X43.879 Y105.442 E317.1790
G1 X105.625 Y43.697 E321.5355
G1 X105.873 Y44.127 E321.5603
G1 X44.127 Y105.873 E325.9168
G1 X44.376 Y106.303 E325.9416
G1 X106.122 Y44.557 E330.2981
G1 X106.370 Y44.988 E330.3229
G1 X44.624 Y106.734 E334.6794
G1 X44.873 Y107.164 E334.7042
G1 X106.618 Y45.418 E339.0607
G1 X106.867 Y45.848 E339.0855
G1 X45.121 Y107.594 E343.4420
G1 X45.370 Y108.025 E343.4668
G1 X107.115 Y46.279 E347.8233
G1 X107.364 Y46.709 E347.8481
G1 X45.618 Y108.455 E352.2046
G1 X45.866 Y108.885 E352.2294
G1 X107.612 Y47.139 E356.5859
G1 X107.861 Y47.570 E356.6107
G1 X46.115 Y109.316 E360.9672
G1 X46.363 Y109.746 E360.9920
G1 X108.109 Y48.000 E365.3485
G1 X108.358 Y48.431 E365.3733
G1 X46.612 Y110.176 E369.7298
G1 X46.860 Y110.607 E369.7546
G1 X108.606 Y48.861 E374.1111
G1 X108.855 Y49.291 E374.1359
G1 X47.109 Y111.037 E378.4924
G1 X47.357 Y111.467 E378.5172
G1 X109.103 Y49.722 E382.8737
G1 X109.352 Y50.152 E382.8985
G1 X47.606 Y111.898 E387.2550
G1 X47.854 Y112.328 E387.2798
G1 X109.600 Y50.582 E391.6363
G1 X109.849 Y51.013 E391.6611
G1 X48.103 Y112.759 E396.0176
G1 X48.351 Y113.189 E396.0424
G1 X110.097 Y51.443 E400.3989
G1 X110.346 Y51.873 E400.4237
G1 X48.600 Y113.619 E404.7802
G1 X48.848 Y114.050 E404.8050
G1 X110.594 Y52.304 E409.1615
G1 X110.842 Y52.734 E409.1863
G1 X49.096 Y114.480 E413.5428
G1 X49.345 Y114.910 E413.5676
G1 X111.091 Y53.164 E417.9241
G1 X111.339 Y53.595 E417.9489
G1 X49.593 Y115.341 E422.3054
G1 X49.842 Y115.771 E422.3302
G1 X111.588 Y54.025 E426.6867
G1 X111.836 Y54.455 E426.7115
G1 X50.090 Y116.201 E431.0680
G1 X50.339 Y116.632 E431.0928
G1 X112.085 Y54.886 E435.4493
G1 X112.333 Y55.316 E435.4741
G1 X50.587 Y117.062 E439.8306
G1 X50.651 Y117.173 E439.8370
G1 X51.155 Y117.173 E439.8621
G1 X112.582 Y55.746 E444.1961
G1 X112.830 Y56.177 E444.2209
G1 X51.834 Y117.173 E448.5245
G1 X52.513 Y117.173 E448.5584
G1 X113.079 Y56.607 E452.8316
G1 X113.327 Y57.038 E452.8564
G1 X53.192 Y117.173 E457.0993
G1 X53.871 Y117.173 E457.1332
G1 X113.576 Y57.468 E461.3457
G1 X113.824 Y57.898 E461.3705
G1 X54.549 Y117.173 E465.5526
G1 X55.228 Y117.173 E465.5865
G1 X114.073 Y58.329 E469.7383
G1 X114.321 Y58.759 E469.7631
G1 X55.907 Y117.173 E473.8845
G1 X56.586 Y117.173 E473.9184
G1 X114.570 Y59.189 E478.0094
G1 X114.818 Y59.620 E478.0342
G1 X57.265 Y117.173 E482.0949
G1 X57.943 Y117.173 E482.1288
G1 X115.066 Y60.050 E486.1591
G1 X115.315 Y60.480 E486.1839
G1 X58.622 Y117.173 E490.1839
G1 X59.301 Y117.173 E490.2177
