; G-Code generated by Simplify3D(R) Version 3.0.2
; Oct 3, 2015 at 9:24:11 AM
; Settings Summary
;   processName,Process1
;   applyToModels,lampBaseTop
;   profileName,PrinterBot Simple Metal Custom (modified)
;   profileVersion,2015-05-01 08:00:00
;   baseProfile,Default (modified)
;   printMaterial,PLA
;   printQuality,Medium
;   printExtruders,
;   extruderName,Primary Extruder
;   extruderToolheadNumber,0
;   extruderDiameter,0.4
;   extruderAutoWidth,0
;   extruderWidth,0.4
;   extrusionMultiplier,1
;   extruderUseRetract,1
;   extruderRetractionDistance,1.5
;   extruderExtraRestartDistance,0
;   extruderRetractionZLift,0
;   extruderRetractionSpeed,1800
;   extruderUseCoasting,0
;   extruderCoastingDistance,0.2
;   extruderUseWipe,0
;   extruderWipeDistance,5
;   primaryExtruder,0
;   layerHeight,0.25
;   topSolidLayers,3
;   bottomSolidLayers,3
;   perimeterOutlines,2
;   printPerimetersInsideOut,1
;   startPointOption,2
;   startPointOriginX,0
;   startPointOriginY,0
;   startPointOriginZ,300
;   sequentialIslands,0
;   spiralVaseMode,0
;   firstLayerHeightPercentage,70
;   firstLayerWidthPercentage,120
;   firstLayerUnderspeed,0.5
;   useRaft,0
;   raftExtruder,0
;   raftLayers,3
;   raftOffset,3
;   raftSeparationDistance,0.14
;   raftInfill,85
;   disableRaftBaseLayers,0
;   useSkirt,1
;   skirtExtruder,0
;   skirtLayers,1
;   skirtOutlines,3
;   skirtOffset,4
;   usePrimePillar,0
;   primePillarExtruder,999
;   primePillarWidth,12
;   primePillarLocation,7
;   primePillarSpeedMultiplier,1
;   useOozeShield,0
;   oozeShieldExtruder,999
;   oozeShieldOffset,2
;   oozeShieldOutlines,1
;   oozeShieldSidewallShape,1
;   oozeShieldSidewallAngle,30
;   oozeShieldSpeedMultiplier,1
;   infillExtruder,0
;   internalInfillPattern,Rectilinear
;   externalInfillPattern,Rectilinear
;   infillPercentage,20
;   outlineOverlapPercentage,15
;   infillExtrusionWidthPercentage,100
;   minInfillLength,5
;   infillLayerInterval,1
;   infillAngles,45,-45
;   overlapInfillAngles,0
;   generateSupport,1
;   supportExtruder,0
;   supportInfillPercentage,30
;   supportExtraInflation,0.4
;   denseSupportLayers,0
;   denseSupportInfillPercentage,70
;   supportLayerInterval,1
;   supportHorizontalPartOffset,0.3
;   supportUpperSeparationLayers,1
;   supportLowerSeparationLayers,1
;   supportType,0
;   supportGridSpacing,4
;   maxOverhangAngle,45
;   supportAngles,0
;   temperatureName,Primary Extruder,Heated Bed
;   temperatureNumber,0,1
;   temperatureSetpointCount,2,3
;   temperatureSetpointLayers,1,2,1,2,3
;   temperatureSetpointTemperatures,210,200,70,65,63
;   temperatureStabilizeAtStartup,1,1
;   temperatureHeatedBed,0,1
;   temperatureRelayBetweenLayers,0,0
;   temperatureRelayBetweenLoops,0,0
;   fanLayers,1,2
;   fanSpeeds,0,100
;   blipFanToFullPower,1
;   adjustSpeedForCooling,1
;   minSpeedLayerTime,15
;   minCoolingSpeedSlowdown,20
;   increaseFanForCooling,0
;   minFanLayerTime,45
;   maxCoolingFanSpeed,100
;   increaseFanForBridging,0
;   bridgingFanSpeed,100
;   use5D,1
;   relativeEdistances,0
;   allowEaxisZeroing,1
;   independentExtruderAxes,0
;   includeM10123,0
;   stickySupport,1
;   applyToolheadOffsets,0
;   gcodeXoffset,0
;   gcodeYoffset,0
;   gcodeZoffset,0
;   overrideMachineDefinition,1
;   machineTypeOverride,0
;   strokeXoverride,150
;   strokeYoverride,150
;   strokeZoverride,150
;   originOffsetXoverride,0
;   originOffsetYoverride,0
;   originOffsetZoverride,0
;   homeXdirOverride,-1
;   homeYdirOverride,-1
;   homeZdirOverride,-1
;   flipXoverride,1
;   flipYoverride,-1
;   flipZoverride,1
;   toolheadOffsets,0,0|0,0|0,0|0,0|0,0|0,0
;   overrideFirmwareConfiguration,1
;   firmwareTypeOverride,RepRap (Marlin/Repetier/Sprinter)
;   GPXconfigOverride,r2
;   baudRateOverride,250000
;   overridePrinterModels,1
;   printerModelsOverride
;   startingGcode,G28 X0 Y0 ; home X and Y axes,G29 ; probe z
;   layerChangeGcode,
;   retractionGcode,
;   toolChangeGcode,
;   endingGcode,M104 S0 T0 ; turn off extruder,M140 S0 T1 ; turn off bed,G28 X0 Y0 ; home,M84 ; disable motors
;   createX3G,0
;   celebration,0
;   celebrationSong,Random Song
;   createMB5G,0
;   postProcessing,
;   defaultSpeed,2700
;   outlineUnderspeed,0.8
;   solidInfillUnderspeed,0.8
;   supportUnderspeed,0.8
;   rapidXYspeed,4200
;   rapidZspeed,1002
;   minBridgingArea,50
;   bridgingExtraInflation,0
;   bridgingExtrusionMultiplier,1
;   bridgingSpeedMultiplier,1
;   filamentDiameter,1.75
;   filamentPricePerKg,22
;   filamentDensity,1.25
;   useMinPrintHeight,0
;   minPrintHeight,0
;   useMaxPrintHeight,0
;   maxPrintHeight,0
;   useDiaphragm,0
;   diaphragmLayerInterval,20
;   robustSlicing,1
;   mergeAllIntoSolid,0
;   onlyRetractWhenCrossingOutline,1
;   retractBetweenLayers,1
;   useRetractionMinTravel,0
;   retractionMinTravel,3
;   retractWhileWiping,0
;   onlyWipeOutlines,1
;   avoidCrossingOutline,0
;   maxMovementDetourFactor,3
;   toolChangeRetractionDistance,12
;   toolChangeExtraRestartDistance,-0.5
;   toolChangeRetractionSpeed,600
;   allowThinWallGapFill,1
;   thinWallAllowedOverlapPercentage,10
;   horizontalSizeCompensation,0
G90
M82
M106 S0
M140 S70
M190 S70
M104 S210 T0
M109 S210 T0
G28 X0 Y0 ; home X and Y axes
G29 ; probe z
G92 E0
G1 E-1.5000 F1800
G1 Z0.175 F1002
; layer 1, Z = 0.175
T0
; tool H0.250 W0.480
; skirt
G1 X46.272 Y28.157 F4200
G1 E0.0000 F540
G92 E0
G1 X46.458 Y27.971 E0.0131 F1350
G1 X48.542 Y26.767 E0.1332
G1 X48.797 Y26.699 E0.1464
G1 X101.203 Y26.699 E2.7609
G1 X101.458 Y26.767 E2.7741
G1 X103.542 Y27.971 E2.8942
G1 X103.728 Y28.157 E2.9073
G1 X129.932 Y73.543 E5.5219
G1 X130.000 Y73.798 E5.5351
G1 X130.000 Y76.204 E5.6551
G1 X129.932 Y76.459 E5.6683
G1 X103.728 Y121.843 E8.2828
G1 X103.542 Y122.029 E8.2959
G1 X101.458 Y123.233 E8.4160
G1 X101.203 Y123.301 E8.4292
G1 X48.797 Y123.301 E11.0438
G1 X48.542 Y123.233 E11.0569
G1 X46.458 Y122.029 E11.1770
G1 X46.272 Y121.843 E11.1901
G1 X20.068 Y76.459 E13.8046
G1 X20.000 Y76.204 E13.8178
G1 X20.000 Y73.798 E13.9379
G1 X20.068 Y73.543 E13.9510
G1 X46.272 Y28.157 E16.5656
G1 X46.592 Y28.402 F4200
G92 E0
G1 X46.703 Y28.291 E0.0079 F1350
G1 X48.697 Y27.140 E0.1227
G1 X48.849 Y27.099 E0.1306
G1 X101.151 Y27.099 E2.7399
G1 X101.303 Y27.140 E2.7478
G1 X103.297 Y28.291 E2.8626
G1 X103.408 Y28.402 E2.8705
G1 X129.559 Y73.698 E5.4799
G1 X129.600 Y73.850 E5.4878
G1 X129.600 Y76.152 E5.6026
G1 X129.559 Y76.304 E5.6105
G1 X103.408 Y121.598 E8.2198
G1 X103.297 Y121.709 E8.2276
G1 X101.303 Y122.860 E8.3425
G1 X101.151 Y122.901 E8.3503
G1 X48.849 Y122.901 E10.9597
G1 X48.697 Y122.860 E10.9676
G1 X46.703 Y121.709 E11.0824
G1 X46.592 Y121.598 E11.0903
G1 X20.441 Y76.304 E13.6996
G1 X20.400 Y76.152 E13.7074
G1 X20.400 Y73.850 E13.8223
G1 X20.441 Y73.698 E13.8301
G1 X46.592 Y28.402 E16.4395
G1 X46.912 Y28.648 F4200
G92 E0
G1 X46.949 Y28.611 E0.0026 F1350
G1 X48.851 Y27.513 E0.1122
G1 X48.902 Y27.499 E0.1148
G1 X101.098 Y27.499 E2.7189
G1 X101.149 Y27.513 E2.7215
G1 X103.051 Y28.611 E2.8311
G1 X103.088 Y28.648 E2.8337
G1 X129.186 Y73.852 E5.4379
G1 X129.200 Y73.903 E5.4405
G1 X129.200 Y76.099 E5.5500
G1 X129.186 Y76.150 E5.5527
G1 X103.088 Y121.352 E8.1567
G1 X103.051 Y121.389 E8.1593
G1 X101.149 Y122.487 E8.2689
G1 X101.098 Y122.501 E8.2715
G1 X48.902 Y122.501 E10.8756
G1 X48.851 Y122.487 E10.8782
G1 X46.949 Y121.389 E10.9878
G1 X46.912 Y121.352 E10.9904
G1 X20.814 Y76.150 E13.5945
G1 X20.800 Y76.099 E13.5971
G1 X20.800 Y73.903 E13.7067
G1 X20.814 Y73.852 E13.7093
G1 X46.912 Y28.648 E16.3134
G92 E0
G1 E-1.5000 F1800
; inner perimeter
G1 X50.416 Y32.419 F4200
G1 E0.0000 F1800
G92 E0
G1 X99.584 Y32.419 E2.4530 F1215
G1 X124.169 Y75.001 E4.9061
G1 X99.584 Y117.581 E7.3591
G1 X50.416 Y117.581 E9.8121
G1 X25.831 Y75.001 E12.2651
G1 X50.416 Y32.419 E14.7181
; outer perimeter
G1 X50.139 Y31.939 F4200
G92 E0
G1 X99.861 Y31.939 E2.4807 F1080
G1 X124.723 Y75.001 E4.9614
G1 X99.861 Y118.061 E7.4420
G1 X50.139 Y118.061 E9.9227
G1 X25.277 Y75.001 E12.4033
G1 X50.139 Y31.939 E14.8841
; inner perimeter
G1 X55.175 Y43.607 F4200
G92 E0
G1 X49.888 Y47.432 E0.3255 F1215
G1 X45.226 Y52.099 E0.6546
G1 X41.326 Y57.507 E0.9873
G1 X41.041 Y58.079 E1.0192
G1 X38.317 Y63.532 E1.3233
G1 X36.297 Y70.030 E1.6628
G1 X35.236 Y77.591 E2.0437
G1 X37.061 Y77.591 E2.1348
G1 X49.676 Y79.280 E2.7697
G1 X50.882 Y79.499 E2.8309
G1 X51.153 Y83.438 E3.0279
G1 X52.189 Y87.862 E3.2546
G1 X53.944 Y92.119 E3.4843
G1 X56.394 Y96.088 E3.7170
G1 X59.486 Y99.658 E3.9526
G1 X63.156 Y102.717 E4.1910
G1 X67.316 Y105.180 E4.4322
G1 X71.867 Y106.971 E4.6762
G1 X75.220 Y107.707 E4.8474
G1 X76.703 Y108.027 E4.9231
G1 X81.701 Y108.305 E5.1729
G1 X86.736 Y107.770 E5.4255
G1 X91.675 Y106.428 E5.6808
G1 X96.389 Y104.293 E5.9390
G1 X100.753 Y101.409 E6.2000
G1 X104.648 Y97.829 E6.4639
G1 X107.962 Y93.632 E6.7307
G1 X110.598 Y88.911 E7.0005
G1 X112.472 Y83.774 E7.2733
G1 X113.520 Y78.348 E7.5490
G1 X113.695 Y72.762 E7.8278
G1 X112.974 Y67.158 E8.1097
G1 X111.356 Y61.681 E8.3946
G1 X108.864 Y56.470 E8.6828
G1 X105.543 Y51.670 E8.9740
G1 X101.459 Y47.406 E9.2686
G1 X96.700 Y43.803 E9.5664
G1 X91.373 Y40.966 E9.8674
G1 X85.600 Y38.980 E10.1721
G1 X79.765 Y37.976 E10.4674
G1 X79.514 Y37.933 E10.4802
G1 X73.273 Y37.863 E10.7915
G1 X67.031 Y38.787 E11.1064
G1 X60.941 Y40.707 E11.4249
G1 X55.175 Y43.607 E11.7469
; outer perimeter
G1 X55.425 Y44.019 F4200
G92 E0
G1 X50.200 Y47.798 E0.3217 F1080
G1 X45.593 Y52.411 E0.6470
G1 X41.738 Y57.755 E0.9757
G1 X41.471 Y58.293 E1.0057
G1 X38.764 Y63.712 E1.3079
G1 X36.767 Y70.135 E1.6435
G1 X35.788 Y77.111 E1.9949
G1 X37.093 Y77.111 E2.0600
G1 X49.750 Y78.806 E2.6971
G1 X51.249 Y79.078 E2.7731
G1 X51.338 Y79.124 E2.7781
G1 X51.630 Y83.366 E2.9903
G1 X52.647 Y87.715 E3.2131
G1 X54.373 Y91.900 E3.4389
G1 X56.782 Y95.803 E3.6678
G1 X59.823 Y99.314 E3.8995
G1 X63.434 Y102.324 E4.1340
G1 X67.528 Y104.747 E4.3714
G1 X72.008 Y106.510 E4.6116
G1 X75.323 Y107.238 E4.7809
G1 X76.767 Y107.550 E4.8546
G1 X81.689 Y107.823 E5.1005
G1 X86.647 Y107.297 E5.3493
G1 X91.512 Y105.975 E5.6008
G1 X96.156 Y103.871 E5.8552
G1 X100.457 Y101.030 E6.1123
G1 X104.295 Y97.502 E6.3724
G1 X107.562 Y93.364 E6.6354
G1 X110.160 Y88.710 E6.9014
G1 X112.008 Y83.645 E7.1703
G1 X113.041 Y78.294 E7.4422
G1 X113.214 Y72.785 E7.7172
G1 X112.503 Y67.257 E7.9953
G1 X110.907 Y61.853 E8.2764
G1 X108.447 Y56.712 E8.5607
G1 X105.170 Y51.974 E8.8481
G1 X101.139 Y47.766 E9.1389
G1 X96.441 Y44.209 E9.4329
G1 X91.181 Y41.408 E9.7302
G1 X85.480 Y39.446 E10.0310
G1 X79.684 Y38.449 E10.3244
G1 X79.471 Y38.412 E10.3352
G1 X73.306 Y38.343 E10.6428
G1 X67.139 Y39.256 E10.9538
G1 X61.122 Y41.154 E11.2685
G1 X55.425 Y44.019 E11.5867
; solid layer
G1 X53.195 Y44.536 F4200
G92 E0
G1 X64.904 Y32.827 E0.8261 F1080
G1 X65.583 Y32.827 E0.8600
G1 X55.344 Y43.066 E1.5824
G1 X56.710 Y42.379 E1.6587
G1 X66.261 Y32.827 E2.3326
G1 X66.940 Y32.827 E2.3665
G1 X58.075 Y41.692 E2.9919
G1 X59.441 Y41.005 E3.0682
G1 X67.619 Y32.827 E3.6452
G1 X68.298 Y32.827 E3.6791
G1 X60.801 Y40.324 E4.2080
G1 X61.793 Y40.011 E4.2599
G1 X68.977 Y32.827 E4.7668
G1 X69.655 Y32.827 E4.8006
G1 X62.784 Y39.698 E5.2854
G1 X63.776 Y39.386 E5.3373
G1 X70.334 Y32.827 E5.8000
G1 X71.013 Y32.827 E5.8339
G1 X64.767 Y39.073 E6.2746
G1 X65.759 Y38.760 E6.3265
G1 X71.692 Y32.827 E6.7451
G1 X72.371 Y32.827 E6.7789
G1 X66.750 Y38.447 E7.1755
G1 X66.939 Y38.388 E7.1853
G1 X67.584 Y38.292 E7.2179
G1 X73.050 Y32.827 E7.6035
G1 X73.728 Y32.827 E7.6374
G1 X68.381 Y38.175 E8.0147
G1 X69.178 Y38.057 E8.0548
G1 X74.407 Y32.827 E8.4238
G1 X75.086 Y32.827 E8.4577
G1 X69.974 Y37.939 E8.8184
G1 X70.771 Y37.821 E8.8585
G1 X75.765 Y32.827 E9.2109
G1 X76.444 Y32.827 E9.2447
G1 X71.568 Y37.703 E9.5888
G1 X72.364 Y37.585 E9.6290
G1 X77.123 Y32.827 E9.9647
G1 X77.801 Y32.827 E9.9985
G1 X73.161 Y37.467 E10.3259
G1 X73.245 Y37.455 E10.3302
G1 X73.846 Y37.461 E10.3601
G1 X78.480 Y32.827 E10.6871
G1 X79.159 Y32.827 E10.7210
G1 X74.517 Y37.469 E11.0485
G1 X75.188 Y37.476 E11.0820
G1 X79.838 Y32.827 E11.4100
G1 X80.517 Y32.827 E11.4439
G1 X75.860 Y37.484 E11.7725
G1 X76.531 Y37.491 E11.8060
G1 X81.195 Y32.827 E12.1351
G1 X81.874 Y32.827 E12.1689
G1 X77.202 Y37.499 E12.4986
G1 X77.874 Y37.507 E12.5321
G1 X82.553 Y32.827 E12.8622
G1 X83.232 Y32.827 E12.8961
G1 X78.545 Y37.514 E13.2268
G1 X79.216 Y37.522 E13.2603
G1 X83.911 Y32.827 E13.5915
G1 X84.590 Y32.827 E13.6254
G1 X79.842 Y37.575 E13.9604
G1 X80.421 Y37.674 E13.9897
G1 X85.268 Y32.827 E14.3317
G1 X85.947 Y32.827 E14.3656
G1 X81.000 Y37.774 E14.7146
G1 X81.579 Y37.874 E14.7439
G1 X86.626 Y32.827 E15.1000
G1 X87.305 Y32.827 E15.1339
G1 X82.158 Y37.974 E15.4970
G1 X82.737 Y38.073 E15.5263
G1 X87.984 Y32.827 E15.8965
G1 X88.662 Y32.827 E15.9303
G1 X83.317 Y38.173 E16.3075
G1 X83.896 Y38.273 E16.3368
G1 X89.341 Y32.827 E16.7211
G1 X90.020 Y32.827 E16.7549
G1 X84.475 Y38.372 E17.1462
G1 X85.054 Y38.472 E17.1755
G1 X90.699 Y32.827 E17.5738
G1 X91.378 Y32.827 E17.6077
G1 X85.633 Y38.572 E18.0130
G1 X85.701 Y38.583 E18.0164
G1 X86.147 Y38.737 E18.0399
G1 X92.057 Y32.827 E18.4569
G1 X92.735 Y32.827 E18.4908
G1 X86.652 Y38.910 E18.9200
G1 X87.157 Y39.084 E18.9466
G1 X93.414 Y32.827 E19.3881
G1 X94.093 Y32.827 E19.4220
G1 X87.662 Y39.258 E19.8757
G1 X88.167 Y39.432 E19.9024
G1 X94.772 Y32.827 E20.3684
G1 X95.451 Y32.827 E20.4022
G1 X88.672 Y39.605 E20.8805
G1 X89.177 Y39.779 E20.9071
G1 X96.130 Y32.827 E21.3977
G1 X96.808 Y32.827 E21.4315
G1 X89.682 Y39.953 E21.9343
G1 X90.188 Y40.127 E21.9609
G1 X97.487 Y32.827 E22.4760
G1 X98.166 Y32.827 E22.5098
G1 X90.693 Y40.300 E23.0371
G1 X91.198 Y40.474 E23.0638
G1 X98.845 Y32.827 E23.6033
G1 X99.349 Y32.827 E23.6285
G1 X99.413 Y32.938 E23.6348
G1 X91.682 Y40.668 E24.1803
G1 X92.125 Y40.904 E24.2053
G1 X99.661 Y33.368 E24.7370
G1 X99.910 Y33.799 E24.7618
G1 X92.568 Y41.140 E25.2798
G1 X93.011 Y41.376 E25.3048
G1 X100.158 Y34.229 E25.8091
G1 X100.407 Y34.659 E25.8339
G1 X93.454 Y41.612 E26.3244
G1 X93.897 Y41.848 E26.3494
G1 X100.655 Y35.090 E26.8263
G1 X100.904 Y35.520 E26.8511
G1 X94.340 Y42.084 E27.3142
G1 X94.783 Y42.320 E27.3392
G1 X101.152 Y35.950 E27.7886
G1 X101.400 Y36.381 E27.8134
G1 X95.226 Y42.555 E28.2490
G1 X95.669 Y42.791 E28.2741
G1 X101.649 Y36.811 E28.6960
G1 X101.897 Y37.241 E28.7208
G1 X96.112 Y43.027 E29.1290
G1 X96.555 Y43.263 E29.1540
G1 X102.146 Y37.672 E29.5485
G1 X102.394 Y38.102 E29.5733
G1 X96.988 Y43.509 E29.9548
G1 X97.374 Y43.801 E29.9790
G1 X102.643 Y38.533 E30.3507
G1 X102.891 Y38.963 E30.3755
G1 X97.760 Y44.094 E30.7375
G1 X98.147 Y44.386 E30.7617
G1 X103.140 Y39.393 E31.1140
G1 X103.388 Y39.824 E31.1388
G1 X98.533 Y44.679 E31.4813
G1 X98.919 Y44.971 E31.5055
G1 X103.637 Y40.254 E31.8383
G1 X103.885 Y40.684 E31.8631
G1 X99.306 Y45.264 E32.1862
G1 X99.692 Y45.556 E32.2104
G1 X104.134 Y41.115 E32.5238
G1 X104.382 Y41.545 E32.5486
G1 X100.078 Y45.849 E32.8522
G1 X100.465 Y46.141 E32.8764
G1 X104.630 Y41.975 E33.1703
G1 X104.879 Y42.406 E33.1951
G1 X100.851 Y46.434 E33.4793
G1 X101.237 Y46.726 E33.5035
G1 X105.127 Y42.836 E33.7780
G1 X105.376 Y43.266 E33.8028
G1 X101.624 Y47.019 E34.0675
G1 X101.731 Y47.100 E34.0743
G1 X101.971 Y47.350 E34.0915
G1 X105.624 Y43.697 E34.3493
G1 X105.873 Y44.127 E34.3741
G1 X102.303 Y47.697 E34.6260
G1 X102.635 Y48.044 E34.6499
G1 X106.121 Y44.558 E34.8959
G1 X106.370 Y44.988 E34.9207
G1 X102.967 Y48.391 E35.1608
G1 X103.299 Y48.737 E35.1847
G1 X106.618 Y45.418 E35.4189
G1 X106.867 Y45.849 E35.4437
G1 X103.631 Y49.084 E35.6720
G1 X103.963 Y49.431 E35.6959
G1 X107.115 Y46.279 E35.9183
G1 X107.364 Y46.709 E35.9431
G1 X104.296 Y49.777 E36.1595
G1 X104.628 Y50.124 E36.1835
G1 X107.612 Y47.140 E36.3941
G1 X107.861 Y47.570 E36.4189
G1 X104.960 Y50.471 E36.6235
G1 X105.292 Y50.818 E36.6475
G1 X108.109 Y48.000 E36.8462
G1 X108.357 Y48.431 E36.8710
G1 X105.624 Y51.164 E37.0639
G1 X105.860 Y51.411 E37.0809
G1 X105.940 Y51.527 E37.0879
G1 X108.606 Y48.861 E37.2760
G1 X108.854 Y49.292 E37.3008
G1 X106.218 Y51.928 E37.4868
G1 X106.496 Y52.329 E37.5112
G1 X109.103 Y49.722 E37.6951
G1 X109.351 Y50.152 E37.7199
G1 X106.773 Y52.730 E37.9018
G1 X107.051 Y53.132 E37.9262
